svgs/sharp-solid/grid-2-plus.svg

<svg xmlns="http://www.w3.org/2000/svg" viewBox="0 0 512 512"><!--! Font Awesome Pro 6.6.0 by @fontawesome - https://fontawesome.com License - https://fontawesome.com/license (Commercial License) Copyright 2024 Fonticons, Inc. --><path d="M224 32l0 192L32 224 32 32l192 0zm0 256l0 192L32 480l0-192 192 0zM288 32l192 0 0 192-192 0 0-192zM408 272l0 24 0 64 64 0 24 0 0 48-24 0-64 0 0 64 0 24-48 0 0-24 0-64-64 0-24 0 0-48 24 0 64 0 0-64 0-24 48 0z"/></svg>

<svg xmlns="http://www.w3.org/2000/svg" viewBox="0 0 512 512"><!--! Font Awesome Pro 6.4.2 by @fontawesome - https://fontawesome.com License - https://fontawesome.com/license (Commercial License) Copyright 2023 Fonticons, Inc. --><path d="M224 32V224H32V32H224zm0 256V480H32V288H224zM288 32H480V224H288V32zM408 272v24 64h64 24v48H472 408v64 24H360V472 408H296 272V360h24 64V296 272h48z"/></svg>
